!!!COM: willie-nelson
!!!OTL: blue-eyes-cryin
!!!RNB: hooktheoryid: dZbgOXnMxnY
**kern	**text
*clefG2	*
*k[f#c#g#d#]	*
*M4/4	*
=1	=1
4.g#	E
8g#	.
8.B	.
8e	.
8.a	.
=2	=2
16g#	E
16f#	.
8e	.
4e	.
2r	.
=3	=3
4.f#	B
16f#	.
16g#	.
8f#	.
4B	.
16e	.
[16g#	.
=4	=4
4..g#]	E
2r	.
16r	.
=5	=5
4.g#	E
8g#	.
8g#	.
16B	.
8.e	.
8a	.
=6	=6
16g#	E
16f#	.
8e	.
4e	.
4.r	.
8f#	.
=7	=7
4..f#	B
16g#	.
16f#	.
8.B	.
8d#	.
8e	.
=8	=8
1r	.
*-	*-